source/images/github-icon.svg

<?xml version="1.0" encoding="iso-8859-1"?>
<!-- Generator: Adobe Illustrator 15.0.0, SVG Export Plug-In . SVG Version: 6.00 Build 0)  -->
<!DOCTYPE svg PUBLIC "-//W3C//DTD SVG 1.1//EN" "http://www.w3.org/Graphics/SVG/1.1/DTD/svg11.dtd">
<svg version="1.1" id="Icons" xmlns="http://www.w3.org/2000/svg" xmlns:xlink="http://www.w3.org/1999/xlink" x="0px" y="0px"
	 width="100px" height="100px" viewBox="0 0 100 100" style="enable-background:new 0 0 100 100;" xml:space="preserve">
<path id="Github__x28_alt_x29_" d="M70.709,15.029c1.17,2.657,1.928,7.07,0.797,10.301c4.625,3.949,6.214,13.549,3.982,21.394
	C82.08,47.227,89.931,46.482,95,48.505c-4.738-0.609-11.209-1.804-17.32-1.388c-1.158,0.079-2.874-0.044-2.79,1.585
	c7.075,0.556,14.104,1.16,19.913,2.973c-5.761-0.941-12.754-2.374-19.913-2.574c-2.957,5.835-8.907,8.703-17.122,9.307
	c0.883,1.921,2.574,2.653,2.987,5.744c0.616,4.618-0.964,11.381,0.595,14.459c0.748,1.475,1.967,1.514,2.789,2.775
	c-2.012,2.381-7.001-0.267-7.568-2.775c-0.973-4.295,1.482-10.954-1.193-13.865c0.189,4.684-1.108,11.264,0.199,15.449
	c0.515,1.646,2.002,2.281,1.593,3.765c-9.352,0.95-5.444-12.104-6.972-19.809c-1.411,0.1-0.791,2.113-0.796,2.972
	c-0.04,7.524,1.54,17.844-6.57,16.837c-0.237-1.581,1.088-2.119,1.593-3.563c1.479-4.234-0.277-10.542,0.401-15.651
	c-3.095,2.333,0.325,10.48-1.593,14.657c-1.105,2.404-4.666,3.45-7.367,2.377c0.352-1.79,2.2-1.501,2.984-3.169
	c1.096-2.325,0.008-5.674,0.399-9.111c-5.729,1.143-10.173-0.166-12.348-3.764c-0.973-1.615-1.214-3.52-2.39-4.951
	c-1.17-1.432-3.04-1.625-3.582-3.564c7.095-1.708,7.367,7.302,13.739,7.525c1.954,0.071,2.97-0.564,4.778-0.989
	c0.506-2.272,1.589-3.966,3.186-5.153c-7.929-1.085-14.477-3.554-17.522-9.504c-7.208,0.355-13.804,1.317-19.913,2.771
	c5.545-2.014,12.384-2.736,19.715-2.973c-0.432-2.596-4.219-1.882-6.57-1.782C13.973,47.31,8.473,47.853,5,48.505
	c5.034-1.795,12.098-1.571,18.918-1.585c-2.086-6.54-1.363-16.929,3.186-20.798c-1.289-3.249-0.889-8.563,0.796-11.093
	c5.079,0.228,8.159,2.443,11.35,4.557c3.957-1.125,8.118-1.685,13.54-1.387c2.28,0.126,4.652,1.151,6.369,0.989
	c1.685-0.158,3.542-2.049,5.178-2.771C66.468,15.476,68.271,15.117,70.709,15.029z"/>
</svg>

<?xml version="1.0"?>
<svg version="1.1" xmlns="http://www.w3.org/2000/svg" xmlns:xlink="http://www.w3.org/1999/xlink" width="100" height="100">
    <desc iVinci="yes" version="4.5" gridStep="20" showGrid="no" snapToGrid="no" codePlatform="0"/>
    <g id="Layer1" opacity="1">
        <g id="Shape1">
            <desc shapeID="1" type="0" basicInfo-basicType="0" basicInfo-roundedRectRadius="12" basicInfo-polygonSides="6" basicInfo-starPoints="5" bounding="rect(-45,-34.4997,90,68.9994)" text="" font-familyName="" font-pixelSize="20" font-bold="0" font-underline="0" font-alignment="1" strokeStyle="0" markerStart="0" markerEnd="0" shadowEnabled="0" shadowOffsetX="0" shadowOffsetY="2" shadowBlur="4" shadowOpacity="160" blurEnabled="0" blurRadius="4" transform="matrix(1,0,0,1,50,49.5287)" pers-center="0,0" pers-size="0,0" pers-start="0,0" pers-end="0,0" locked="0" mesh="" flag=""/>
            <path id="shapePath1" d="M70.709,15.029 C71.879,17.686 72.637,22.099 71.506,25.33 C76.131,29.279 77.72,38.879 75.488,46.724 C82.08,47.227 89.931,46.482 95,48.505 C90.262,47.896 83.791,46.701 77.68,47.117 C76.522,47.196 74.806,47.073 74.89,48.702 C81.965,49.258 88.994,49.862 94.803,51.675 C89.042,50.734 82.049,49.301 74.89,49.101 C71.933,54.936 65.983,57.804 57.768,58.408 C58.651,60.329 60.342,61.061 60.755,64.152 C61.371,68.77 59.791,75.533 61.35,78.611 C62.098,80.086 63.317,80.125 64.139,81.386 C62.127,83.767 57.138,81.119 56.571,78.611 C55.598,74.316 58.053,67.657 55.378,64.746 C55.567,69.43 54.27,76.01 55.577,80.195 C56.092,81.841 57.579,82.476 57.17,83.96 C47.818,84.91 51.726,71.856 50.198,64.151 C48.787,64.251 49.407,66.264 49.402,67.123 C49.362,74.647 50.942,84.967 42.832,83.96 C42.595,82.379 43.92,81.841 44.425,80.397 C45.904,76.163 44.148,69.855 44.826,64.746 C41.731,67.079 45.151,75.226 43.233,79.403 C42.128,81.807 38.567,82.853 35.866,81.78 C36.218,79.99 38.066,80.279 38.85,78.611 C39.946,76.286 38.858,72.937 39.249,69.5 C33.52,70.643 29.076,69.334 26.901,65.736 C25.928,64.121 25.687,62.216 24.511,60.785 C23.341,59.353 21.471,59.16 20.929,57.221 C28.024,55.513 28.296,64.523 34.668,64.746 C36.622,64.817 37.638,64.182 39.446,63.757 C39.952,61.485 41.035,59.791 42.632,58.604 C34.703,57.519 28.155,55.05 25.11,49.1 C17.902,49.455 11.306,50.417 5.197,51.871 C10.742,49.857 17.581,49.135 24.912,48.898 C24.48,46.302 20.693,47.016 18.342,47.116 C13.973,47.31 8.473,47.853 5,48.505 C10.034,46.71 17.098,46.934 23.918,46.92 C21.832,40.38 22.555,29.991 27.104,26.122 C25.815,22.873 26.215,17.559 27.9,15.029 C32.979,15.257 36.059,17.472 39.25,19.586 C43.207,18.461 47.368,17.901 52.79,18.199 C55.07,18.325 57.442,19.35 59.159,19.188 C60.844,19.03 62.701,17.139 64.337,16.417 C66.468,15.476 68.271,15.117 70.709,15.029 Z" style="stroke:none;fill-rule:nonzero;fill:#ffffff;fill-opacity:1;"/>
        </g>
    </g>
</svg>
